X:1
T:Title
%%score { ( 1 2 ) | ( 3 4 ) }
L:1/8
Q:1/4=100
M:4/4
K:Eb
V:1 treble nm="Grand Piano"
V:2 treble 
V:3 bass 
V:4 bass 
V:1
 G2 z F G2 [EA]2 | [DB]2 cd e2 d2 | c2 B2 BA G2 | G2 F2 [DF]4 | [DG]2 [FG]2 [EG]2 [Ec]2 | %5
w: George~F.~Le~Jeune * * *|||||
 [Fc]2 [F=B]2 [Gc]2 [G_B]2 | =A2 GF f-[Af] [Ge]2 | z2 c2 [DB]4 | [EB]2 [Ee]2 G2 c2 | BAGF =E2 F2 | %10
w: |||||
 B2 [Ee]2 G2 c2 | BAGA F4 | =E2 E2 F2 G2 | A2 Bc [EB]2 [B,FA]2 | [B,EG]2 [=B,FG]2 [C=EG]2 .[CFB]2 | %15
w: |||||
 [B,EG]2 .[A,EF]2 [G,E]4 |] %16
w: |
V:2
 z2 E2 z4 | x8 | z4 F2 z2 | x8 | x8 | x8 | z4 .F2 z2 | d2 z E B,2 z2 | x8 | x8 | x8 | x8 | x8 | %13
 z2 D2 z4 | x8 | x8 |] %16
V:3
 [E,B,E]2 G,A, [E,B,E]2 [C,A,]2 | [B,,F,]2[K:treble] [A,CF]2 [G,B,E]2 [G,B,E]2 | %2
 [A,E]2 [G,B,E]2[K:bass] [D,B,]2 [E,B,E]2 | [F,=A,E]2 [F,A,E]2 [B,,B,]4 | %4
 [=B,,G,]2 [B,,G,]2 [C,G,]2 [C,G,]2 | [D,G,]2 [D,G,]2 [E,C]2 [=E,C]2 | %6
 [F,CF]2 [E,=A,C]2 [D,B,]2 [E,B,]2 | [F,B,F]2 .[F,=A,F]2 z2 _A,2 | %8
 [E,G,]2 [B,,G,]2 [E,B,E]2 [E,A,E]2 | [F,A,D]2 [B,,B,]2 [G,B,_D]2 [A,B,=D]2 | %10
 [G,B,E]2 [B,,G,]2 [E,B,E]2 [E,A,E]2 | [F,A,D]2 B,-[F,B,=D] [A,B,D]4 | %12
 [G,B,_D]2 [G,B,D]2 [A,C]2 [=E,B,C]2 | [F,A,C]2 [B,,A,]2 [C,A,]2 D,2 | E,2 D,2 C,2 z A | %15
 B,,2 z D E,4 |] %16
V:4
 z2 E,2 z4 | x2[K:treble] x6 | x4[K:bass] x4 | x8 | x8 | x8 | x8 | z4 B,,4 | x8 | x8 | x8 | %11
 z2 .[=E,_D]2 z4 | x8 | x8 | z4 z2 F,,2 | z2 B,,2 z4 |] %16

